X:1
T:A Breeze from Alabama.
T:A BREEZE FROM ALABAMA.
T:SCOTT  JOPLIN.
T:MARCH  AND  TWO-STEP.
T:Public Domain
T:Public Domain
T:Public Domain
T:Public Domain
T:Public Domain
C:Scott Joplin
Z:Public Domain
%%score { ( 1 3 ) | ( 2 4 ) }
L:1/8
Q:1/4=76
M:2/4
K:C
V:1 treble nm="Piano"
V:3 treble 
V:2 bass 
V:4 bass 
V:1
"^Not fast." [EG] | [^Dc] z z [Ec]- | [Ec]/G/E/^D/ E/F/G- | G/F/D/^C/ E/D/B,/A,/ | %4
 G, z !^![GBdg]G |:!f! [Ge]/[^F^d]/[Ge]/[Ec]/- [Ec]/E/=F/^F/ | G/c/e/[Geg]/- [Geg]/[^F^d^f]/[Geg] | %7
 [Ge]/[^F^d]/[Ge]/[Ec]/- [Ec]/E/=F/^F/ | G/c/e/[Geg]/- [Geg]/[^F^d^f]/[Geg] | %9
!<(! [Gg]/[^Gf^g]/[Afa]/[Bfb]/- [Bfb]/[=Gf=g]/[Afa]/[Bfb]/!<)! | %10
!<(! [cec']/[Beb]/[cec']/[ege']/- [ege']/[^d^d']/[ee']!<)! | %11
!<(! e'/d'/^c'/d'/- d'/[e=c']/[db]/[ca]/!<)! | !>![Bg]2-!>(! [Bg][GBd=f] | %13
!f! [Gce]/!>)![^F^d]/[Ge]/[Ec]/- [Ec]/E/=F/^F/ | G/c/e/[Geg]/- [Geg]/[^F^d^f]/[Geg] | %15
 [Ge]/[^F^d]/[Ge]/G/- G/_B/A/^G/ | A/d/f/[Afa]/- [Afa]/f/d/A/ |1 [^Dc] z z [Ec]- | %18
 [Ec]/G/E/^D/ E/F/G- | G/F/D/^C/ E/D/B,/A,/ | G, z [GBdg]G :|2 A/^G/A/B/ c/B/c/d/ || %22
 e [G^cf]2 [Gce] | [^F=ce] [=FBe]2 [FBd] | [Ec] z{gab} !^![ec'] z |:!f! [Afa] [cac']2 [Afa] | %26
 [Afa] [Geg]3 | [df]/[ce]/[Bd]/[ce]/ [df]/[fa][fa]/ | [eg]/[df]/[ce]/[df]/ [eg]/[ec'][ec']/ | %29
 [Afa] [cac']2 [Afa] | [Afa] [Geg]3 | %31
!<(! [cec']/[Beb]/[Aea]/[Beb]/ [cac']/[^ca^c']/[dabd']/[^dab^d']/!<)! | %32
 [e^gbe'] z!>(! !>![_Be=g]2!>)! |!f! [Afa] [cac']2 [Afa] | [Afa] [Geg]3 | %35
 [df]/[ce]/[Bd]/[ce]/ [df]/[fa][fa]/ | [eg]/[df]/[ce]/[df]/ [eg]/[ec'][ec']/ | %37
 [dd'][dd']- [dd']/c'/b/a/ | [ea][eg]- [eg]/c/d/e/ | [Bg] [Bf]2 [FGB] |1 %40
 [EGc][Gg]/[Gg]/ [Gg][Gg] :|2 [EGc] z{gab} !^![ec'] z |:[K:Ab] [cec'][cec']- [cec']/e/a/b/ | %43
 [cec']/[cec'][cec']/- [cec']/[cc']/[dd']/[ee']/ | [faf'][faf']- [faf']/[faf']/[ege']/[dfd']/ | %45
 [cec']/[cec'][cec']/- [cec']/[cc']/[Bb]/[Aa]/ | [Gdg][Gdg]- [Gdg]/[Ee]/[Ff]/[Gg]/ | %47
 [Aca]/[Aca][Aca]/- [Aca]/[cc']/[Bb]/[Aa]/ | [FBf][dfd']- [dfd']/[dd']/[cc']/[Bb]/ | %49
 [Aa][Aa]/[Aa]/ [Aa][Bb] | [=B=b][Bb]- [Bb]/[=E=e]/[^G^g]/[=B=b]/ | %51
 [^F=B^d^f]/[FBdf][FBdf]/- [FBdf]/[Ff]/[=B=b]/[^d^d']/ | %52
 [^c^c'][cc']- [cc']/[^F^f]/[^G^g]/[^A^a]/ | [=B=b][Bb]/[Bb]/ [Bb][Bb] | %54
 [=B=b][Bb]- [Bb]/[=E=e]/[^G^g]/[=B=b]/ | [c_ec']/[cec'][cec']/- [cec']/[cc']/[_B_b]/[_A_a]/ | %56
 [G_dg][ee']- [ee']/[dd']/[cc']/[Bb]/ |1 [Aa]e/e/ ee :|2 [Aa][Aa]/[Aa]/ [Aa][Aa] || %59
 [=A=a][ff']- [ff']/[=e=e']/[=d=d']/[cc']/ | [Gg]/[=A=a]/[_B_b]- [Bb]/[B=db]/[=Ac=a]/[GBg]/ | %61
 [F=Af] [F_A_df]2 [FAdf] | [F=Acf] z!>(! [f=ac'f'] z!>)! |:[K:F]!p! [GB]>c [GB]>c | %64
 z/ e/d/c/ B/A/B/G/ | [FA]>c [FA]>c | z/ f/e/d/ c/=B/c/A/ | [Ba]>g B2- | B/c/[Be]/c/ d/e/d/c/ | %69
 [Ag]>f A2- | A/A/d/A/ c/d/c/A/ | [GB]>c [GB]>c | z/ e/d/c/ B/A/B/G/ | [FA]>c [FA]>c | %74
!<(! z/ f/e/d/ c/=B/c/A/!<)! |!f!!<(! [Ff]>[Gg]!<)!!>(! [_A_a]2!>)! | %76
!>(! z/!>)!!p! f/[c=a]/f/ g/a/g/f/ |{/c'} b/a/g- g/b/a/g/ |1 fc/c/ cc :|2 %79
 f z"_R.H."!<(![I:staff +1] F,^F,!<)! ||!<(! G,A,-!<)! A,/G,/^F,/G,/ |!<(! CD- D/!<)!C/=B,/C/ | %82
!<(![I:staff -1]{/=B} A/G/^F/G/!<)! ^G/A/^A/B/ | c z{ga=b} !^![ec'] z |: %84
[K:C]!f! [Afa] [cac']2 [Afa] | [Afa] [Geg]3 | [df]/[ce]/[Bd]/[ce]/ [df]/[fa][fa]/ | %87
 [eg]/[df]/[ce]/[df]/ [eg]/[ec'][ec']/ | [Afa] [cac']2 [Afa] | [Afa] [Geg]3 | %90
!<(! [cec']/[Beb]/[Aea]/[Beb]/ [cac']/[^ca^c']/[dabd']/[^dab^d']/!<)! | %91
 [e^gbe'] z!>(! !>![_Be=g]2!>)! |!f! [Afa] [cac']2 [Afa] | [Afa] [Geg]3 | %94
 [df]/[ce]/[Bd]/[ce]/ [df]/[fa][fa]/ | [eg]/[df]/[ce]/[df]/ [eg]/[ec'][ec']/ | %96
 [dd'][dd']- [dd']/c'/b/a/ | [ea][eg]- [eg]/c/d/e/ | [Bg] [Bf]2 [FGB] |1 %99
 [EGc][Gg]/[Gg]/ [Gg][Gg] :|2 [EGc] z{gab} !^![ec']!fine! |] %101
V:2
 C | [^F,A,C] z z [=G,C]- | [G,C]/G,/E,/^D,/ E,/F,/G,- | G,/F,/D,/^C,/ E,/D,/B,,/A,,/ | %4
 G,, z !^![G,,,G,,] z |: C,[G,CE] G,,[G,CE] | C,[G,CE] G,,[G,CE] | C,[G,CE] G,,[G,CE] | %8
 C,[G,CE] G,,[G,CE] | D,[G,B,F] G,,[G,B,F] | C,[G,CE] ^C,[^A,G] | D,[B,DG] D,[CD^F] | %12
 !>![DG]2- [DG] z | C,[G,CE] G,,[G,CE] | C,[G,CE] G,,[G,CE] | C,[G,CE] ^C,[G,A,E] | %16
 D,[F,A,D] F,[A,D] |1 [^F,A,C] z z [=G,C]- | [G,C]/G,/E,/^D,/ E,/F,/G,- | %19
 G,/F,/D,/^C,/ E,/D,/B,,/A,,/ | G,, z [G,,,G,,] z :|2 [^F,A,C^D] z [F,A,CD] z || %22
 [G,CE][A,,A,] [A,,,A,,]2 | [D,,D,][G,,G,] [G,,,G,,]2 | [C,,C,] z !^![C,,C,] z |: %25
 F,,[A,CF] A,,[A,CF] | C,[G,CE] E,[G,CE] | G,,[G,B,F] B,,[G,B,F] | C,[G,CE] C,[G,CE] | %29
 F,,[A,CF] A,,[A,CF] | C,[G,CE] E,[G,CE] | [A,,A,][A,CE] [F,,F,][F,,F,] | [E,,E,] z !>![C,C]2 | %33
 F,,[A,CF] A,,[A,CF] | C,[G,CE] E,[G,CE] | G,,[G,B,F] B,,[G,B,F] | C,[G,CE] E,[G,CE] | %37
 F,[A,CD] ^F,[A,C^D] | G,[CE] E,[G,CE] | D,[G,D] [G,,G,]2 |1 [C,,C,] z z2 :|2 %41
 [C,,C,] z !^![C,,C,] z |:[K:Ab] [A,,A,][E,A,C] [E,,E,][E,A,C] | [A,,A,][E,A,C] [E,,E,][E,A,C] | %44
 [D,,D,][F,A,D] [D,,D,][F,A,D] | [A,,A,][E,A,C] [E,,E,][E,A,C] | [B,,B,][E,B,D] [E,,E,][E,B,D] | %47
 [A,,A,][E,A,C] [E,,E,][E,A,C] | [D,,D,][B,,,B,,] [E,,E,][E,G,D] | [A,C] z z2 | %50
 =E,[^G,=B,] E,[G,B,] | ^D,[^F,=B,] B,,[^D,F,B,] | ^F,,[=E,^F,^A,] F,,[E,F,A,] | %53
 [=B,,^D,^F,=B,] z z2 | E,[^G,=B,] E,[G,B,] | _E,[_A,C] E,[A,C] | [E,,E,][E,G,D] [E,,E,][E,G,D] |1 %57
 [A,C] z z2 :|2 [A,C] z [D,F,A,D]2 || [C,F,=A,C][F,F]- [F,F]/[=E,=E]/[=D,=D]/[C,C]/ | %60
 [=E,,=E,]/[F,,F,]/[G,,G,]- [G,,G,]/[C,,C,]/[=D,,=D,]/[=E,,=E,]/ | [F,,F,] [_D,,_D,]2 [D,,D,] | %62
 [F,,F,] z [F,,,F,,] z |:[K:F] E,[G,B,C] E,[G,B,C] | E,[G,B,C] E,[G,B,C] | F,[A,C] C,[A,C] | %66
 F,[A,C] C,[A,C] | G,[B,CE] C,[B,CE] | G,[B,CE] C,[B,CE] | F,[A,CF] C,[A,CF] | F,[A,CF] C,[A,CF] | %71
 E,[G,B,C] E,[G,B,C] | E,[G,B,C] E,[G,B,C] | F,[A,C] C,[A,C] | F,[A,C] C,[A,C] | %75
 _D,[F,_A,=B,] D,[F,A,B,] | C,[F,=A,C] C,[A,CF] | G,[B,CE] C,[B,CE] |1 [F,A,CF] z z2 :|2 %79
 [F,A,CF] z"_L.H." F,,^F,, || G,,A,,- A,,/G,,/^F,,/G,,/ | C,D,- D,/C,/=B,,/C,/ | %82
 [G,=B,=F]2 [G,B,F]2 | [CE] z !^![C,,C,] z |:[K:C] F,,[A,CF] A,,[A,CF] | C,[G,CE] E,[G,CE] | %86
 G,,[G,B,F] B,,[G,B,F] | C,[G,CE] C,[G,CE] | F,,[A,CF] A,,[A,CF] | C,[G,CE] E,[G,CE] | %90
 [A,,A,][A,CE] [F,,F,][F,,F,] | [E,,E,] z !>![C,C]2 | F,,[A,CF] A,,[A,CF] | C,[G,CE] E,[G,CE] | %94
 G,,[G,B,F] B,,[G,B,F] | C,[G,CE] E,[G,CE] | F,[A,CD] ^F,[A,C^D] | G,[CE] E,[G,CE] | %98
 D,[G,D] [G,,G,]2 |1 [C,,C,] z z2 :|2 [C,,C,] z !^![C,,C,] |] %101
V:3
 x | cA/^G/ A/B/c | x4 | x4 | x4 |: x4 | x4 | x4 | x4 | x4 | x4 | x4 | x4 | x4 | x4 | x4 | x4 |1 %17
 cA/^G/ A/B/c | x4 | x4 | x4 :|2 x4 || x4 | x4 | x4 |: x4 | x4 | x4 | x4 | x4 | x4 | x4 | x4 | x4 | %34
 x4 | x4 | x4 | x4 | x4 | x4 |1 x4 :|2 x4 |:[K:Ab] x4 | x4 | x4 | x4 | x4 | x4 | x4 | x4 | x4 | %51
 x4 | x4 | x4 | x4 | x4 | x4 |1 x4 :|2 x4 || x4 | x4 | x4 | x4 |:[K:F] x4 | x4 | x4 | x4 | x4 | %68
 x4 | x4 | x4 | x4 | x4 | x4 | x4 | x4 | x4 | x4 |1 x4 :|2 x4 || x4 | x4 | x4 | x4 |:[K:C] x4 | %85
 x4 | x4 | x4 | x4 | x4 | x4 | x4 | x4 | x4 | x4 | x4 | x4 | x4 | x4 |1 x4 :|2 x3 |] %101
V:4
 x | CA,/^G,/ A,/B,/C | x4 | x4 | x4 |: x4 | x4 | x4 | x4 | x4 | x4 | x4 | G,=F,/D,/- D,/B,,/G,, | %13
 x4 | x4 | x4 | x4 |1 CA,/^G,/ A,/B,/C | x4 | x4 | x4 :|2 x4 || x4 | x4 | x4 |: x4 | x4 | x4 | x4 | %29
 x4 | x4 | x4 | x4 | x4 | x4 | x4 | x4 | x4 | x4 | x4 |1 x4 :|2 x4 |:[K:Ab] x4 | x4 | x4 | x4 | %46
 x4 | x4 | x4 | x4 | x4 | x4 | x4 | x4 | x4 | x4 | x4 |1 x4 :|2 x4 || x4 | x4 | x4 | x4 |: %63
[K:F] x4 | x4 | x4 | x4 | x4 | x4 | x4 | x4 | x4 | x4 | x4 | x4 | x4 | x4 | x4 |1 x4 :|2 x4 || x4 | %81
 x4 | x4 | x4 |:[K:C] x4 | x4 | x4 | x4 | x4 | x4 | x4 | x4 | x4 | x4 | x4 | x4 | x4 | x4 | x4 |1 %99
 x4 :|2 x3 |] %101

